resources/haticons/SVG/sad1.svg

<!-- Generated by IcoMoon.io -->
<svg version="1.1" xmlns="http://www.w3.org/2000/svg" width="24" height="24" viewBox="0 0 24 24">
<title>sad1</title>
<path d="M12 0c-6.619 0-12 5.381-12 12s5.381 12 12 12 12-5.381 12-12-5.381-12-12-12zM12 22.5c-5.79 0-10.5-4.71-10.5-10.5s4.71-10.5 10.5-10.5 10.5 4.71 10.5 10.5-4.71 10.5-10.5 10.5zM9.322 8.010c0 0.899-0.729 1.627-1.627 1.627s-1.628-0.729-1.628-1.627c0-0.899 0.729-1.627 1.628-1.627s1.627 0.729 1.627 1.627zM17.933 8.010c0 0.899-0.729 1.627-1.628 1.627s-1.627-0.729-1.627-1.627c0-0.899 0.729-1.627 1.627-1.627s1.628 0.729 1.628 1.627zM12 13.74c-3.649 0-5.381 2.572-5.79 3.93-0.12 0.398 0.105 0.81 0.499 0.93 0.071 0.023 0.146 0.034 0.217 0.034 0.319 0 0.619-0.206 0.716-0.529 0.037-0.116 0.934-2.865 4.354-2.865 3.416 0 4.312 2.738 4.354 2.865 0.098 0.322 0.398 0.532 0.716 0.532 0.071 0 0.143-0.011 0.214-0.030 0.398-0.12 0.622-0.536 0.503-0.934-0.398-1.361-2.134-3.934-5.783-3.934z"></path>
</svg>

<svg xmlns="http://www.w3.org/2000/svg" width="24" height="24"><path d="M12 0C5.381 0 0 5.381 0 12s5.381 12 12 12 12-5.381 12-12S18.619 0 12 0zm0 22.5C6.21 22.5 1.5 17.79 1.5 12S6.21 1.5 12 1.5 22.5 6.21 22.5 12 17.79 22.5 12 22.5zM9.322 8.01a1.627 1.627 0 1 1-3.254 0 1.627 1.627 0 0 1 3.254 0zm8.611 0a1.627 1.627 0 1 1-3.255 0 1.627 1.627 0 0 1 3.255 0zM12 13.74c-3.649 0-5.381 2.572-5.79 3.93-.12.398.105.81.499.93a.748.748 0 0 0 .933-.495c.037-.116.934-2.865 4.354-2.865 3.416 0 4.312 2.738 4.354 2.865a.754.754 0 0 0 .93.502.75.75 0 0 0 .503-.934c-.398-1.361-2.134-3.934-5.783-3.934z"/></svg>
